X: 1
T: The Cuckoo's Nest
C: Trad
M: 4/4
L: 1/8
P: (AB)5
Z: ABC by Michael Greene (2009) & Mackin
G: Sherborne
K: D
P: A
|: "Em" GAGF E2 d2 | B2 B2 "G" A4 | FAFE D2 EF | [1 G2 A2 "Em" E2 EF :|[2 G2 A2 "Em" E4 ||
P: B
|:"Em" e2 e2 e2 fe | "Bm" d2 B2 B3 c | "G" d2 d2 d2 e2 | "D" cdcB A3 F|
"Em" GAGF E2 d2 | B2 B2 "D"A4 | FAFE D2 EF | [1 G2 A2 "Em" E4 :|[2 G2 A2 E2 EF ||
